src/topics/icons/aurora.svg

<svg height="226" preserveAspectRatio="xMidYMid" viewBox="0 0 256 226" width="256" xmlns="http://www.w3.org/2000/svg"><path d="m155.893921 58.3659843h-55.832189l27.961449 48.1471497z" fill="#63c4b1"/><path d="m94.6131654 61.480315-27.8888819 48.231811h55.8442835z" fill="#63c4b1"/><path d="m122.567559 115.980094h-55.8452913l27.8888819 48.266079z" fill="#63c4b1"/><path d="m61.3634016 119.100472-28.0491339 48.219717h55.9259213z" fill="#63c4b1"/><path d="m161.259843 61.480315-27.864693 48.231811h55.835212z" fill="#63c4b1"/><path d="m189.232378 115.980094h-55.839244l27.867716 48.266079z" fill="#63c4b1"/><path d="m128.022173 3.79464567-27.958425 48.30236223h55.829165z" fill="#63c4b1"/><path d="m89.2411969 173.600252h-55.9269292l28.0501417 48.581543z" fill="#63c4b1"/><path d="m194.598299 119.100472-27.949354 48.219717h55.907779z" fill="#63c4b1"/><path d="m222.55874 173.600252h-55.908787l27.949354 48.581543z" fill="#63c4b1"/><g fill="#fff"><path d="m128.022173 119.100472-27.958425 48.219717h55.829165z"/><path d="m89.2411969 58.3659843h-55.9269292l28.0501417 48.1471497z"/><path d="m.06551181 109.711118h55.82614169l-27.9493543-48.2318109z"/><path d="m27.9422992 164.247181 27.9493543-48.266079h-55.82614169z"/><path d="m227.918614 61.480315-27.858645 48.231811h55.81707z"/><path d="m255.879055 115.980094h-55.820094l27.861669 48.266079z"/><path d="m189.232378.66922835h-55.839244l27.867716 48.17738585z"/><path d="m155.893921 173.600252h-55.9208816l28.0501416 48.581543z"/><path d="m161.259843 176.708535-27.864693 48.652095h55.835212z"/><path d="m122.567559.66922835h-55.8452913l27.8888819 48.17738585z"/><path d="m61.3634016 3.79464567-28.0491339 48.30236223h55.9259213z"/><path d="m194.598299 3.79464567-27.949354 48.30236223h55.907779z"/><path d="m222.55874 58.3659843h-55.908787l27.949354 48.1471497z"/><path d="m94.6131654 176.708535-27.8888819 48.652095h55.8442835z"/></g></svg>

<?xml version="1.0" encoding="UTF-8" standalone="no"?>
<svg width="256px" height="226px" viewBox="0 0 256 226" version="1.1" xmlns="http://www.w3.org/2000/svg" xmlns:xlink="http://www.w3.org/1999/xlink" preserveAspectRatio="xMidYMid">
	<g>
		<path d="M155.893921,58.3659843 L100.061732,58.3659843 L128.023181,106.513134 L155.893921,58.3659843" fill="#63C4B1"></path>
		<path d="M94.6131654,61.480315 L66.7242835,109.712126 L122.568567,109.712126 L94.6131654,61.480315" fill="#63C4B1"></path>
		<path d="M122.567559,115.980094 L66.7222677,115.980094 L94.6111496,164.246173 L122.567559,115.980094" fill="#63C4B1"></path>
		<path d="M61.3634016,119.100472 L33.3142677,167.320189 L89.240189,167.320189 L61.3634016,119.100472" fill="#63C4B1"></path>
		<path d="M161.259843,61.480315 L133.39515,109.712126 L189.230362,109.712126 L161.259843,61.480315" fill="#63C4B1"></path>
		<path d="M189.232378,115.980094 L133.393134,115.980094 L161.26085,164.246173 L189.232378,115.980094" fill="#63C4B1"></path>
		<path d="M128.022173,3.79464567 L100.063748,52.0970079 L155.892913,52.0970079 L128.022173,3.79464567" fill="#63C4B1"></path>
		<path d="M89.2411969,173.600252 L33.3142677,173.600252 L61.3644094,222.181795 L89.2411969,173.600252" fill="#63C4B1"></path>
		<path d="M194.598299,119.100472 L166.648945,167.320189 L222.556724,167.320189 L194.598299,119.100472" fill="#63C4B1"></path>
		<path d="M222.55874,173.600252 L166.649953,173.600252 L194.599307,222.181795 L222.55874,173.600252" fill="#63C4B1"></path>
		<path d="M128.022173,119.100472 L100.063748,167.320189 L155.892913,167.320189 L128.022173,119.100472" fill="#FFFFFF"></path>
		<path d="M89.2411969,58.3659843 L33.3142677,58.3659843 L61.3644094,106.513134 L89.2411969,58.3659843" fill="#FFFFFF"></path>
		<path d="M0.065511811,109.711118 L55.8916535,109.711118 L27.9422992,61.4793071 L0.065511811,109.711118" fill="#FFFFFF"></path>
		<path d="M27.9422992,164.247181 L55.8916535,115.981102 L0.065511811,115.981102 L27.9422992,164.247181" fill="#FFFFFF"></path>
		<path d="M227.918614,61.480315 L200.059969,109.712126 L255.877039,109.712126 L227.918614,61.480315" fill="#FFFFFF"></path>
		<path d="M255.879055,115.980094 L200.058961,115.980094 L227.92063,164.246173 L255.879055,115.980094" fill="#FFFFFF"></path>
		<path d="M189.232378,0.669228346 L133.393134,0.669228346 L161.26085,48.8466142 L189.232378,0.669228346" fill="#FFFFFF"></path>
		<path d="M155.893921,173.600252 L99.9730394,173.600252 L128.023181,222.181795 L155.893921,173.600252" fill="#FFFFFF"></path>
		<path d="M161.259843,176.708535 L133.39515,225.36063 L189.230362,225.36063 L161.259843,176.708535" fill="#FFFFFF"></path>
		<path d="M122.567559,0.669228346 L66.7222677,0.669228346 L94.6111496,48.8466142 L122.567559,0.669228346" fill="#FFFFFF"></path>
		<path d="M61.3634016,3.79464567 L33.3142677,52.0970079 L89.240189,52.0970079 L61.3634016,3.79464567" fill="#FFFFFF"></path>
		<path d="M194.598299,3.79464567 L166.648945,52.0970079 L222.556724,52.0970079 L194.598299,3.79464567" fill="#FFFFFF"></path>
		<path d="M222.55874,58.3659843 L166.649953,58.3659843 L194.599307,106.513134 L222.55874,58.3659843" fill="#FFFFFF"></path>
		<path d="M94.6131654,176.708535 L66.7242835,225.36063 L122.568567,225.36063 L94.6131654,176.708535" fill="#FFFFFF"></path>
	</g>
</svg>
